X: 1030
T: Tom Scarlet.
%R: jig
B: Henry Playford "Apollo's Banquet", London 1687 (5th Edition)
F: https://archive.org/details/apollosbanquetco01rugg
Z: 2017 John Chambers <jc:trillian.mit.edu>
M: 6/4
L: 1/4
K: F
% - - - - - - - - - -
F |\
F2G A2B | c3 F2f | fd2 e2f | g3- g2a |\
a>ga a>ga | b3 a2g | f>gf e2d | c3- c2 :|
|: g |\
(ga)d (ef)c | (cd)B A2F | F>GA F>GA | B3- B2c |\
d2c d2c | d2e f2e | f2g f2e | f3- f2 |]
% - - - - - - - - - -

%%sep 1 1 500
%%sep 1 1 500

